build/images/icon-delivery-2.svg

<svg width="35" height="20" viewBox="0 0 35 20" fill="none" xmlns="http://www.w3.org/2000/svg">
<path d="M7.51042 15H3.10625L2.93125 15.8714C2.87292 16.1857 2.96042 16.5143 3.16458 16.7571C3.36875 17 3.68958 17.1429 4.01042 17.1429H7.35C7.30625 16.9143 7.29167 16.6714 7.29167 16.4286C7.29167 15.9286 7.36458 15.4571 7.51042 15ZM23.0854 0.4C22.8813 0.142857 22.575 0 22.2396 0H6.92708C6.40208 0 5.95 0.371429 5.84792 0.871429L5.74583 1.42857H9.11458C10.5146 1.42857 11.6667 2.55714 11.6667 3.92857C11.6667 4.84286 11.1563 5.62857 10.4125 6.07143C11.1563 6.51429 11.6667 7.3 11.6667 8.21428C11.6667 9.12857 11.1563 9.91428 10.4125 10.3571C10.8646 10.6286 11.2292 11.0286 11.4479 11.5143C11.7542 11.4571 12.075 11.4286 12.3958 11.4286C15.2104 11.4286 17.5 13.6714 17.5 16.4286C17.5 16.6714 17.4854 16.9143 17.4417 17.1429H18.9583C19.4688 17.1429 19.9208 16.7857 20.0229 16.3L23.3042 1.3C23.3771 0.985714 23.3042 0.657143 23.0854 0.4Z" fill="white"/>
<path d="M28.0729 4.28571H24.9521C24.4271 4.28571 23.9896 4.64286 23.8729 5.12857L21.5396 15.8429C21.4667 16.1571 21.5396 16.4857 21.7583 16.7429C21.9625 17 22.2687 17.1429 22.6042 17.1429H23.3917C23.3479 16.9143 23.3333 16.6714 23.3333 16.4286C23.3333 13.6714 25.6229 11.4286 28.4375 11.4286C31.2521 11.4286 33.5417 13.6714 33.5417 16.4286C33.5417 16.5857 33.5417 16.7286 33.5125 16.8857C33.7021 16.7429 33.8333 16.5429 33.8771 16.3L34.9708 11.3C34.9854 11.2286 35 11.1429 35 11.0714C35 7.32857 31.8937 4.28571 28.0729 4.28571Z" fill="white"/>
<path d="M9.11458 5H4.01042C3.40667 5 2.91667 4.52 2.91667 3.92857C2.91667 3.33714 3.40667 2.85714 4.01042 2.85714H9.11458C9.71833 2.85714 10.2083 3.33714 10.2083 3.92857C10.2083 4.52 9.71833 5 9.11458 5Z" fill="white"/>
<path d="M9.11458 9.28571H2.55208C1.94833 9.28571 1.45833 8.80571 1.45833 8.21428C1.45833 7.62286 1.94833 7.14286 2.55208 7.14286H9.11458C9.71833 7.14286 10.2083 7.62286 10.2083 8.21428C10.2083 8.80571 9.71833 9.28571 9.11458 9.28571Z" fill="white"/>
<path d="M9.11458 13.5714H1.09375C0.49 13.5714 0 13.0914 0 12.5C0 11.9086 0.49 11.4286 1.09375 11.4286H9.11458C9.71833 11.4286 10.2083 11.9086 10.2083 12.5C10.2083 13.0914 9.71833 13.5714 9.11458 13.5714Z" fill="white"/>
<path d="M28.4375 20C26.4279 20 24.7917 18.3986 24.7917 16.4286C24.7917 14.4586 26.4279 12.8571 28.4375 12.8571C30.4471 12.8571 32.0833 14.4586 32.0833 16.4286C32.0833 18.3986 30.4471 20 28.4375 20Z" fill="white"/>
<path d="M12.3958 20C10.3863 20 8.75 18.3986 8.75 16.4286C8.75 14.4586 10.3863 12.8571 12.3958 12.8571C14.4054 12.8571 16.0417 14.4586 16.0417 16.4286C16.0417 18.3986 14.4054 20 12.3958 20Z" fill="white"/>
</svg>

<svg width="35" height="20" fill="none" xmlns="http://www.w3.org/2000/svg"><path d="M7.51 15H3.106l-.175.871c-.058.315.03.643.234.886.204.243.525.386.845.386h3.34a3.833 3.833 0 01-.058-.714c0-.5.073-.972.218-1.429zM23.085.4c-.204-.257-.51-.4-.845-.4H6.927c-.525 0-.977.371-1.08.871l-.101.558h3.369c1.4 0 2.552 1.128 2.552 2.5 0 .914-.51 1.7-1.255 2.142.744.443 1.255 1.229 1.255 2.143 0 .915-.51 1.7-1.255 2.143a2.6 2.6 0 011.036 1.157c.306-.057.627-.085.948-.085 2.814 0 5.104 2.242 5.104 5 0 .242-.015.485-.058.714h1.516c.51 0 .963-.357 1.065-.843l3.281-15c.073-.314 0-.643-.219-.9zm4.988 3.886h-3.12c-.526 0-.963.357-1.08.843L21.54 15.843c-.073.314 0 .643.218.9.204.257.51.4.846.4h.788a3.829 3.829 0 01-.059-.714c0-2.758 2.29-5 5.105-5 2.814 0 5.104 2.242 5.104 5 0 .157 0 .3-.03.457a.931.931 0 00.365-.586l1.094-5a1.27 1.27 0 00.029-.229c0-3.742-3.106-6.785-6.927-6.785z" fill="#fff"/><path d="M9.115 5H4.01c-.603 0-1.093-.48-1.093-1.071 0-.592.49-1.072 1.093-1.072h5.105c.603 0 1.093.48 1.093 1.072C10.208 4.52 9.718 5 9.115 5zm0 4.286H2.552c-.604 0-1.094-.48-1.094-1.072 0-.591.49-1.071 1.094-1.071h6.563c.603 0 1.093.48 1.093 1.071 0 .592-.49 1.072-1.093 1.072zm0 4.285H1.094C.49 13.571 0 13.091 0 12.5s.49-1.071 1.094-1.071h8.02c.604 0 1.094.48 1.094 1.071s-.49 1.071-1.093 1.071zM28.438 20c-2.01 0-3.646-1.601-3.646-3.571 0-1.97 1.636-3.572 3.645-3.572 2.01 0 3.646 1.602 3.646 3.572S30.447 20 28.438 20zm-16.042 0c-2.01 0-3.646-1.601-3.646-3.571 0-1.97 1.636-3.572 3.646-3.572s3.646 1.602 3.646 3.572S14.405 20 12.396 20z" fill="#fff"/></svg>
